X:156
T:The March in Scipio
O:No 156 William Clarke of Feltwell
M:4/4
L:1/8
N:The second note in bar B6 in m.s. could be E or F#
K:G
GA|B4d4|g6A2|Bcded2cB|A6d2efg2f2e2|d4c4|BA G>A"tr"A3G|G6::g3/2a1/4b1/4|a2g2f2ga|d4c4|B2cBA2G2|d6b2|e^defe2e2|e4f4|{a}g2fe"tr"e3d|d6dc|{c}BABcB2A2|c4B4|e2d2c2B2|A6d2|efg2f2e2|d4c4|BA G>A"tr"A3G|G6:|

